static/logos/render.svg

<svg width="786" height="171" viewBox="0 0 786 171" fill="none" xmlns="http://www.w3.org/2000/svg">
<path d="M287 79.0996C277 79.0996 269.2 81.6998 261.5 85.7998V160.2C261.5 162.2 259.8 164.1 257.8 164.1H240.8C238.8 164.1 237.1 162.3 237.1 160.2V63.4004C237.1 61.4004 238.8 59.7002 240.8 59.7002H256.9C258.9 59.7002 260.6 61.4004 260.6 63.4004V67.2998C269.7 60.2998 279.7 58.4004 287.1 58.4004C289.1 58.4004 290.8 60.0996 290.8 62.0996V75.4004C290.7 77.4004 289 79.0996 287 79.0996Z" fill="#37322e"/>
<path d="M384.5 120.3H324.2V120.9C324.2 131.6 328.6 144.4 346.4 144.4C359.9 144.4 372.7 143.3 380.4 142.5C380.6 142.5 380.8 142.5 381 142.5C382.9 142.5 384.3 143.4 384.3 145.3V157.5C384.3 160.5 383.7 161.8 380.4 162.3C368.4 164.5 361.2 165.4 344.5 165.4C326 165.4 299.7 155.4 299.7 119V105.3C299.7 76.3998 315.8 58.2998 344.1 58.2998C372.6 58.2998 388.1 77.6998 388.1 105.3V115.7C388.2 118.7 387.1 120.3 384.5 120.3ZM363.6 102.2C363.6 87.8002 355.6 79.4004 344.2 79.4004C332.8 79.4004 324.4 87.5002 324.4 102.2V102.9H363.6V102.2V102.2Z" fill="#37322e"/>
<path d="M490.8 164H473.8C471.8 164 470.1 162.2 470.1 160.1V99.7998C470.1 83.6998 468.6 79.0996 454.4 79.0996C448.1 79.0996 441.3 81.6998 433.5 85.7998V160.2C433.5 162.2 431.8 164.1 429.8 164.1H412.8C410.8 164.1 409.1 162.3 409.1 160.2V63.4004C409.1 61.4004 410.8 59.7002 412.8 59.7002H428.9C430.9 59.7002 432.6 61.4004 432.6 63.4004V67.2998C443.3 60.4998 450.4 58.4004 462.6 58.4004C489.2 58.4004 494.6 76.2998 494.6 99.7998V160.1C494.5 162.2 492.9 164 490.8 164Z" fill="#37322e"/>
<path d="M596.301 160.7C584.801 163.7 571 165.5 559.1 165.5C529.3 165.5 514.9 147.9 514.9 119.1V104.9C514.9 76.0004 529.3 58.5 559.1 58.5C563.5 58.5 570 58.8998 576.9 59.7998V27.0996C576.9 25.0996 578.6 23.4004 580.6 23.4004H597.6C599.6 23.4004 601.301 25.0996 601.301 27.0996V155.9C601.301 158.5 600.501 159.6 596.301 160.7ZM576.9 79.5996C571.7 78.8996 563.6 78.2998 559.1 78.2998C543.2 78.2998 539.301 89.5998 539.301 104.8V119C539.301 134.2 543.2 145.5 559.1 145.5C565.8 145.5 573.3 144.9 576.9 144.2V79.5996Z" fill="#37322e"/>
<path d="M706.9 120.3H646.6V120.9C646.6 131.6 651.001 144.4 668.801 144.4C682.301 144.4 695.101 143.3 702.801 142.5C703.001 142.5 703.2 142.5 703.4 142.5C705.2 142.5 706.699 143.4 706.699 145.3V157.5C706.699 160.5 706.101 161.8 702.801 162.3C690.801 164.5 683.6 165.4 666.9 165.4C648.4 165.4 622.1 155.4 622.1 119V105.3C622.1 76.3998 638.2 58.2998 666.5 58.2998C695 58.2998 710.5 77.6998 710.5 105.3V115.7C710.6 118.7 709.5 120.3 706.9 120.3ZM686 102.2C686 87.8002 678 79.4004 666.6 79.4004C655.1 79.4004 646.801 87.5002 646.801 102.2V102.9H686V102.2Z" fill="#37322e"/>
<path d="M781.5 79.0996C771.5 79.0996 763.7 81.6998 756 85.7998V160.2C756 162.2 754.301 164.1 752.301 164.1H735.301C733.301 164.1 731.6 162.3 731.6 160.2V63.4004C731.6 61.4004 733.301 59.7002 735.301 59.7002H751.4C753.4 59.7002 755.1 61.4004 755.1 63.4004V67.2998C764.2 60.2998 774.2 58.4004 781.6 58.4004C783.6 58.4004 785.301 60.0996 785.301 62.0996V75.4004C785.201 77.4004 783.5 79.0996 781.5 79.0996Z" fill="#37322e"/>
<path d="M113.3 0H111.3V2V20.5996V22.5996H113.3H131.9H133.9V20.5996V2V0H131.9H113.3Z" fill="#37322e"/>
<path d="M53.5 0C46.3 0 39.3002 1.4002 32.7002 4.2002C26.3002 6.9002 20.6002 10.8002 15.7002 15.7002C10.8002 20.6002 6.9002 26.3002 4.2002 32.7002C1.4002 39.3002 0 46.3 0 53.5V131.9V133.9H2H20.5996H22.5996V131.9V53.2002C22.9996 45.1002 26.3996 37.5004 32.0996 31.9004C37.8996 26.2004 45.4996 22.8996 53.5996 22.5996H94.7998H96.7998V20.5996V2V0H94.7998H53.5Z" fill="#37322e"/>
<path d="M150.4 74.2002H148.4V76.2002V94.7998V96.7998H150.4H169H171V94.7998V76.2002V74.2002H169H150.4Z" fill="#37322e"/>
<path d="M150.4 37.0996H148.4V39.0996V57.7002V59.7002H150.4H169H171V57.7002V39.0996V37.0996H169H150.4Z" fill="#37322e"/>
<path d="M169 0H150.4H148.4V2V20.5996V22.5996H150.4H169H171V20.5996V2V0H169Z" fill="#37322e"/>
<path d="M150.4 111.3H148.4V113.3V131.9V133.9H150.4H169H171V131.9V113.3V111.3H169H150.4Z" fill="#37322e"/>
<path d="M150.4 148.4H148.4V150.4V169V171H150.4H169H171V169V150.4V148.4H169H150.4Z" fill="#37322e"/>
<path d="M113.3 148.4H111.3V150.4V169V171H113.3H131.9H133.9V169V150.4V148.4H131.9H113.3Z" fill="#37322e"/>
<path d="M76.2002 148.4H74.2002V150.4V169V171H76.2002H94.7998H96.7998V169V150.4V148.4H94.7998H76.2002Z" fill="#37322e"/>
<path d="M39.0996 148.4H37.0996V150.4V169V171H39.0996H57.7002H59.7002V169V150.4V148.4H57.7002H39.0996Z" fill="#37322e"/>
<path d="M2 148.4H0V150.4V169V171H2H20.5996H22.5996V169V150.4V148.4H20.5996H2Z" fill="#37322e"/>
</svg>

<svg fill="none" xmlns="http://www.w3.org/2000/svg" viewBox="0 0 786 171"><path d="M287 79.1c-10 0-17.8 2.6-25.5 6.7v74.4c0 2-1.7 3.9-3.7 3.9h-17c-2 0-3.7-1.8-3.7-3.9V63.4c0-2 1.7-3.7 3.7-3.7h16.1c2 0 3.7 1.7 3.7 3.7v3.9c9.1-7 19.1-8.9 26.5-8.9 2 0 3.7 1.7 3.7 3.7v13.3a4 4 0 01-3.8 3.7zM384.5 120.3h-60.3v.6c0 10.7 4.4 23.5 22.2 23.5 13.5 0 26.3-1.1 34-1.9h.6c1.9 0 3.3.9 3.3 2.8v12.2c0 3-.6 4.3-3.9 4.8-12 2.2-19.2 3.1-35.9 3.1-18.5 0-44.8-10-44.8-46.4v-13.7c0-28.9 16.1-47 44.4-47 28.5 0 44 19.4 44 47v10.4c.1 3-1 4.6-3.6 4.6zm-20.9-18.1c0-14.4-8-22.8-19.4-22.8-11.4 0-19.8 8.1-19.8 22.8v.7h39.2v-.7zM490.8 164h-17c-2 0-3.7-1.8-3.7-3.9V99.8c0-16.1-1.5-20.7-15.7-20.7-6.3 0-13.1 2.6-20.9 6.7v74.4c0 2-1.7 3.9-3.7 3.9h-17c-2 0-3.7-1.8-3.7-3.9V63.4c0-2 1.7-3.7 3.7-3.7h16.1c2 0 3.7 1.7 3.7 3.7v3.9a48.3 48.3 0 0130-8.9c26.6 0 32 17.9 32 41.4v60.3c-.1 2.1-1.7 3.9-3.8 3.9zM596.3 160.7c-11.5 3-25.3 4.8-37.2 4.8-29.8 0-44.2-17.6-44.2-46.4v-14.2c0-28.9 14.4-46.4 44.2-46.4 4.4 0 10.9.4 17.8 1.3V27.1c0-2 1.7-3.7 3.7-3.7h17c2 0 3.7 1.7 3.7 3.7v128.8c0 2.6-.8 3.7-5 4.8zm-19.4-81.1a164 164 0 00-17.8-1.3c-15.9 0-19.8 11.3-19.8 26.5V119c0 15.2 3.9 26.5 19.8 26.5 6.7 0 14.2-.6 17.8-1.3V79.6zM706.9 120.3h-60.3v.6c0 10.7 4.4 23.5 22.2 23.5 13.5 0 26.3-1.1 34-1.9h.6c1.8 0 3.3.9 3.3 2.8v12.2c0 3-.6 4.3-3.9 4.8-12 2.2-19.2 3.1-35.9 3.1-18.5 0-44.8-10-44.8-46.4v-13.7c0-28.9 16.1-47 44.4-47 28.5 0 44 19.4 44 47v10.4c.1 3-1 4.6-3.6 4.6zM686 102.2c0-14.4-8-22.8-19.4-22.8-11.5 0-19.8 8.1-19.8 22.8v.7H686v-.7zM781.5 79.1c-10 0-17.8 2.6-25.5 6.7v74.4c0 2-1.7 3.9-3.7 3.9h-17c-2 0-3.7-1.8-3.7-3.9V63.4c0-2 1.7-3.7 3.7-3.7h16.1c2 0 3.7 1.7 3.7 3.7v3.9c9.1-7 19.1-8.9 26.5-8.9 2 0 3.7 1.7 3.7 3.7v13.3a4 4 0 01-3.8 3.7zM113.3 0h-2v22.6h22.6V0h-20.6zM53.5 0A53 53 0 004.2 32.7 53 53 0 000 53.5v80.4h22.6V53.2a32 32 0 0131-30.6h43.2V0H53.5zM150.4 74.2h-2v22.6H171V74.2h-20.6zM150.4 37.1h-2v22.6H171V37.1h-20.6zM169 0h-20.6v22.6H171V0h-2zM150.4 111.3h-2v22.6H171v-22.6h-20.6zM150.4 148.4h-2V171H171v-22.6h-20.6zM113.3 148.4h-2V171h22.6v-22.6h-20.6zM76.2 148.4h-2V171h22.6v-22.6H76.2zM39.1 148.4h-2V171h22.6v-22.6H39.1zM2 148.4H0V171h22.6v-22.6H2z" fill="#37322e"/></svg>
